svgs/gallery.svg

<svg width="192" height="192" viewBox="0 0 192 192" fill="none" xmlns="http://www.w3.org/2000/svg"><path d="M30 40c0-5.523 4.477-10 10-10h112c5.523 0 10 4.477 10 10v112c0 5.523-4.477 10-10 10H40c-5.523 0-10-4.477-10-10V40Z" stroke="#000" stroke-width="12"/><path d="m30 138 34-34 24 24 40-40 34 34" stroke="#000" stroke-width="12" stroke-linecap="round" stroke-linejoin="round"/></svg>

<svg id="vector" xmlns="http://www.w3.org/2000/svg" width="192" height="192" viewBox="0 0 192 192"><path fill="#00000000" d="M30,40C30,34.477 34.477,30 40,30H152C157.523,30 162,34.477 162,40V152C162,157.523 157.523,162 152,162H40C34.477,162 30,157.523 30,152V40Z" stroke-width="12" stroke="#000000" id="path_0"/><path fill="#00000000" d="M30,138L64,104L88,128L128,88L162,122" stroke-linejoin="round" stroke-width="12" stroke="#000000" stroke-linecap="round" id="path_1"/></svg>
